!!!OTL: Die erzwungene Ehe.
!!!OTL-incipit: Mein Freund hat mir versprochen etwas:
!!!ARE: Europa, Mitteleuropa, Deutschland / France, Lothringen
!!!YOR: 2, S. 250
!!    1933 gedruckt in Heidelberg
!!!SCT: Q1050E
!!!TXL: @@DE
!!!YEM: Copyright 1995, estate of Helmut Schaffrath.
**kern	**text
*ICvox	*
*M2/4	*
*k[b-]	*
*d:	*
!LO:TX:a:t=Pinck, Weisen 3, 246	!
{8d	Mein
=1	=1
8dL	Freund
8fJ	.
8eL	hat
8dJ	.
=2	=2
4c	mir
(4c	ver-
8eq)	.
=3	=3
8fL	-ſprochen
8aJ	.
8a	.
8g	et-
=4	=4
(8gq	.
4a)	-was
8r}	.
{8d	Mein
=5	=5
8dL	Freund
8fJ	.
8eL	hat
8dJ	.
=6	=6
4c	mir
(4c	ver-
8eq)	.
=7	=7
8fL	-ſprochen
8aJ	.
8a	.
8g	et-
=8	=8
(8gq	.
4a)}	-was
{8f	daß
8g	er
=9	=9
8a	mit
8a	mir
8a	in
8b-	die
=10	=10
(4a	Kir-
8g)	.
8f	-che
=11	=11
4g}	geht,
{8g	daß
8b-	er
=12	=12
4a	mich
8d	in
8e	die
=13	=13
(4d	Kirche
8c)	.
8B-	.
=14	=14
4c}	führt
{8e	vor
8g	den
=15	=15
4f	hohen
8e	.
8e	Al-
=16	=16
4d	-tar.
8r}	.
==	==
!!!AGN: Kilt - Lied
!! Melodievergleich zu Q0050d, anderes Lied. Verzierungen (Vorschlaege)
!!    in den ersten Zeilen. Pause in der 2. Zeile korrigiert.
!!!ONB: ESAC (Essen Associative Code) Database: BALLADE
!!!AMT: simple duple
!!!AIN: vox
!!!EED: Helmut Schaffrath
!!!EEV: 1.0
!!!source: Deutsche Volkslieder mit ihren Melodien. Herausgegeben vom Deutschen Volksliedarchiv. Zweiter Band Balladen. Berlin 1939.
!!!page: 250
!!!ENC: Anna Maria Matuszewska
!!!EEV: 2025/02/17
*-	*-
